icons/svg/old_road_shields/h_mot_shield9.svg

<?xml version="1.0" encoding="UTF-8" standalone="no"?>
<!-- Generator: Adobe Illustrator 16.0.4, SVG Export Plug-In . SVG Version: 6.00 Build 0)  -->

<svg
   xmlns:dc="http://purl.org/dc/elements/1.1/"
   xmlns:cc="http://creativecommons.org/ns#"
   xmlns:rdf="http://www.w3.org/1999/02/22-rdf-syntax-ns#"
   xmlns:svg="http://www.w3.org/2000/svg"
   xmlns="http://www.w3.org/2000/svg"
   xmlns:sodipodi="http://sodipodi.sourceforge.net/DTD/sodipodi-0.dtd"
   xmlns:inkscape="http://www.inkscape.org/namespaces/inkscape"
   version="1.1"
   id="Слой_1"
   x="0px"
   y="0px"
   width="73.459999"
   height="16.57"
   viewBox="0 0 73.459997 16.57"
   enable-background="new 0 0 66.455 16.574"
   xml:space="preserve"
   inkscape:version="0.48.4 r9939"
   sodipodi:docname="h_unc_shield9.svg"><metadata
     id="metadata13"><rdf:RDF><cc:Work
         rdf:about=""><dc:format>image/svg+xml</dc:format><dc:type
           rdf:resource="http://purl.org/dc/dcmitype/StillImage" /><dc:title></dc:title></cc:Work></rdf:RDF></metadata><defs
     id="defs11" /><sodipodi:namedview
     pagecolor="#ffffff"
     bordercolor="#666666"
     borderopacity="1"
     objecttolerance="10"
     gridtolerance="10"
     guidetolerance="10"
     inkscape:pageopacity="0"
     inkscape:pageshadow="2"
     inkscape:window-width="806"
     inkscape:window-height="637"
     id="namedview9"
     showgrid="false"
     inkscape:zoom="6.3351138"
     inkscape:cx="58.886345"
     inkscape:cy="13.188053"
     inkscape:window-x="451"
     inkscape:window-y="135"
     inkscape:window-maximized="0"
     inkscape:current-layer="Слой_1" /><path
     clip-rule="evenodd"
     d="m 7.843,-9.9940505e-4 57.808303,0 c 4.314,0 7.828,3.52000000505 7.828,7.84200000505 l 0,0.887 c 0,4.3200004 -3.514,7.8400004 -7.828,7.8400004 l -57.808303,0 c -4.314,0 -7.829,-3.52 -7.829,-7.8400004 l 0,-0.887 c 0,-4.323 3.514,-7.84200000505 7.829,-7.84200000505 z"
     id="path3"
     style="color:#000000;fill:#6883e7;fill-opacity:1;fill-rule:evenodd;stroke-width:1.00000002;stroke-linecap:butt;stroke-linejoin:miter;stroke-miterlimit:4;stroke-opacity:1;stroke-dasharray:none;stroke-dashoffset:0;marker:none;visibility:visible;display:inline;overflow:visible;enable-background:accumulate"
     inkscape:connector-curvature="0"
     sodipodi:nodetypes="cssssssscc" /><path
     clip-rule="evenodd"
     d="m 8.186,1.0580006 57.180303,0 c 3.743,0 6.8,3.062 6.8,6.811 l 0,0.773 c 0,3.7480004 -3.057,6.8110004 -6.8,6.8110004 l -57.180303,0 c -3.743,0 -6.8,-3.062 -6.8,-6.8110004 l 0,-0.774 c 0,-3.748 3.056,-6.81 6.8,-6.81 z"
     id="path5"
     inkscape:connector-curvature="0"
     style="fill:#ffffff;fill-rule:evenodd"
     sodipodi:nodetypes="cssssssscc" /><path
     clip-rule="evenodd"
     d="m 8.929,2.4310006 55.637303,0 c 3.058,0 5.543,2.49 5.543,5.553 l 0,0.6 c 0,3.0620004 -2.485,5.5530004 -5.543,5.5530004 l -55.637303,0 c -3.058,0 -5.543,-2.49 -5.543,-5.5530004 l 0,-0.6 c 0,-3.063 2.485,-5.553 5.543,-5.553 z"
     id="path7"
     style="color:#000000;fill:#6883e7;fill-opacity:1;fill-rule:evenodd;stroke-width:1.00000002;stroke-linecap:butt;stroke-linejoin:miter;stroke-miterlimit:4;stroke-opacity:1;stroke-dasharray:none;stroke-dashoffset:0;marker:none;visibility:visible;display:inline;overflow:visible;enable-background:accumulate"
     inkscape:connector-curvature="0"
     sodipodi:nodetypes="cssssssscc" /></svg>

<svg width="74" height="17" viewBox="0 0 74 17" fill="none" xmlns="http://www.w3.org/2000/svg">
<g clip-path="url(#clip0)">
<path fill-rule="evenodd" clip-rule="evenodd" d="M7.84301 -0.00100708H65.6513C69.9653 -0.00100708 73.4793 3.51899 73.4793 7.84099V8.72799C73.4793 13.048 69.9653 16.568 65.6513 16.568H7.84301C3.52901 16.568 0.0140076 13.048 0.0140076 8.72799V7.84099C0.0140076 3.51799 3.52801 -0.00100708 7.84301 -0.00100708V-0.00100708Z" fill="#6883E7"/>
<path fill-rule="evenodd" clip-rule="evenodd" d="M8.18599 1.05801H65.3663C69.1093 1.05801 72.1663 4.12001 72.1663 7.86901V8.64201C72.1663 12.39 69.1093 15.453 65.3663 15.453H8.18599C4.44299 15.453 1.38599 12.391 1.38599 8.64201V7.86801C1.38599 4.12001 4.44199 1.05801 8.18599 1.05801V1.05801Z" fill="white"/>
<path fill-rule="evenodd" clip-rule="evenodd" d="M8.92899 2.431H64.5663C67.6243 2.431 70.1093 4.921 70.1093 7.984V8.584C70.1093 11.646 67.6243 14.137 64.5663 14.137H8.92899C5.87099 14.137 3.38599 11.647 3.38599 8.584V7.984C3.38599 4.921 5.87099 2.431 8.92899 2.431V2.431Z" fill="#6883E7"/>
</g>
<defs>
<clipPath id="clip0">
<path d="M0 0H73.46V16.57H0V0Z" fill="white"/>
</clipPath>
</defs>
</svg>
